src/assets/seta2.svg

<svg height="35.306641" viewBox="0 0 90.369912 35.306641" width="90.369911" xmlns="http://www.w3.org/2000/svg" xmlns:xlink="http://www.w3.org/1999/xlink"><clipPath id="a"><path d="m0 500h500v-500h-500z"/></clipPath><g clip-path="url(#a)" fill="#101660" stroke="#121869" transform="matrix(1.3333333 0 0 -1.3333333 -58.710788 143.80931)"><path d="m0 0 12.74 12.74-12.74 12.74h21.03l12.741-12.74-12.741-12.74z" transform="translate(45.2402 81.877)"/><path d="m0 0 12.741 12.74-12.741 12.74h9.131l12.74-12.74-12.74-12.74z" transform="translate(73.6426 81.877)"/><path d="m0 0 12.74 12.74-12.74 12.74h9.13l12.741-12.74-12.741-12.74z" transform="translate(89.2324 81.877)"/></g></svg>

<?xml version="1.0" encoding="UTF-8" standalone="no"?>
<!-- Created with Inkscape (http://www.inkscape.org/) -->

<svg
   version="1.1"
   id="svg18"
   width="90.369911"
   height="35.306641"
   viewBox="0 0 90.369912 35.306641"
   sodipodi:docname="seta2.svg"
   inkscape:version="1.2.2 (732a01da63, 2022-12-09, custom)"
   xmlns:inkscape="http://www.inkscape.org/namespaces/inkscape"
   xmlns:sodipodi="http://sodipodi.sourceforge.net/DTD/sodipodi-0.dtd"
   xmlns="http://www.w3.org/2000/svg"
   xmlns:svg="http://www.w3.org/2000/svg">
  <defs
     id="defs22">
    <clipPath
       clipPathUnits="userSpaceOnUse"
       id="clipPath44">
      <path
         d="M 0,500 H 500 V 0 H 0 Z"
         id="path42" />
    </clipPath>
  </defs>
  <sodipodi:namedview
     id="namedview20"
     pagecolor="#ffffff"
     bordercolor="#000000"
     borderopacity="0.25"
     inkscape:showpageshadow="2"
     inkscape:pageopacity="0.0"
     inkscape:pagecheckerboard="0"
     inkscape:deskcolor="#d1d1d1"
     showgrid="false"
     inkscape:zoom="16.709101"
     inkscape:cx="45.214879"
     inkscape:cy="17.684973"
     inkscape:window-width="2560"
     inkscape:window-height="1012"
     inkscape:window-x="0"
     inkscape:window-y="32"
     inkscape:window-maximized="1"
     inkscape:current-layer="g26" />
  <g
     id="g26"
     inkscape:groupmode="layer"
     inkscape:label="Page 1"
     transform="matrix(1.3333333,0,0,-1.3333333,-58.710788,143.80931)">
    <g
       id="g38"
       style="fill:#101660;fill-opacity:1;stroke:#121869;stroke-opacity:1">
      <g
         id="g40"
         clip-path="url(#clipPath44)"
         style="fill:#101660;fill-opacity:1;stroke:#121869;stroke-opacity:1">
        <g
           id="g110"
           transform="translate(45.2402,81.877)"
           style="fill:#101660;fill-opacity:1;stroke:#121869;stroke-opacity:1"
           inkscape:export-filename="../dbb70f23/g110.svg"
           inkscape:export-xdpi="96"
           inkscape:export-ydpi="96">
          <path
             d="M 0,0 12.74,12.74 0,25.48 H 21.03 L 33.771,12.74 21.03,0 Z"
             style="fill:#101660;fill-opacity:1;fill-rule:nonzero;stroke:#121869;stroke-opacity:1"
             id="path112" />
        </g>
        <g
           id="g114"
           transform="translate(73.6426,81.877)"
           style="fill:#101660;fill-opacity:1;stroke:#121869;stroke-opacity:1">
          <path
             d="M 0,0 12.741,12.74 0,25.48 H 9.131 L 21.871,12.74 9.131,0 Z"
             style="fill:#101660;fill-opacity:1;fill-rule:nonzero;stroke:#121869;stroke-opacity:1"
             id="path116" />
        </g>
        <g
           id="g118"
           transform="translate(89.2324,81.877)"
           style="fill:#101660;fill-opacity:1;stroke:#121869;stroke-opacity:1">
          <path
             d="M 0,0 12.74,12.74 0,25.48 H 9.13 L 21.871,12.74 9.13,0 Z"
             style="fill:#101660;fill-opacity:1;fill-rule:nonzero;stroke:#121869;stroke-opacity:1"
             id="path120" />
        </g>
      </g>
    </g>
  </g>
</svg>
